src/lib/packages/icons/src/assets/line/folder-user.svg

<svg width="24" height="24" viewBox="0 0 24 24" fill="none" xmlns="http://www.w3.org/2000/svg">
<path d="M18 20.75H6C3.582 20.75 2.25 19.418 2.25 17V7C2.25 4.582 3.582 3.25 6 3.25H10C10.199 3.25 10.39 3.329 10.53 3.47L13.3101 6.25H18C20.418 6.25 21.75 7.582 21.75 10V17C21.75 19.418 20.418 20.75 18 20.75ZM6 4.75C4.423 4.75 3.75 5.423 3.75 7V17C3.75 18.577 4.423 19.25 6 19.25H18C19.577 19.25 20.25 18.577 20.25 17V10C20.25 8.423 19.577 7.75 18 7.75H13C12.801 7.75 12.61 7.671 12.47 7.53L9.68994 4.75H6ZM12 13.4C10.677 13.4 9.6001 12.323 9.6001 11C9.6001 9.677 10.677 8.60001 12 8.60001C13.323 8.60001 14.3999 9.677 14.3999 11C14.3999 12.323 13.323 13.4 12 13.4ZM12 10.1C11.504 10.1 11.1001 10.504 11.1001 11C11.1001 11.496 11.504 11.9 12 11.9C12.496 11.9 12.8999 11.496 12.8999 11C12.8999 10.504 12.496 10.1 12 10.1ZM15.75 17.35V17.047C15.75 15.583 14.6831 14.1 12.6421 14.1H11.3589C9.31789 14.1 8.25098 15.582 8.25098 17.047V17.35C8.25098 17.764 8.58698 18.1 9.00098 18.1C9.41498 18.1 9.75098 17.764 9.75098 17.35V17.047C9.75098 16.327 10.2479 15.6 11.3589 15.6H12.6421C13.7531 15.6 14.25 16.327 14.25 17.047V17.35C14.25 17.764 14.586 18.1 15 18.1C15.414 18.1 15.75 17.764 15.75 17.35Z" fill="currentColor"/>
</svg>

<svg xmlns="http://www.w3.org/2000/svg" width="24" height="24" fill="none"><path fill="currentColor" d="M18 20.75H6c-2.418 0-3.75-1.332-3.75-3.75V7c0-2.418 1.332-3.75 3.75-3.75h4c.199 0 .39.079.53.22l2.78 2.78H18c2.418 0 3.75 1.332 3.75 3.75v7c0 2.418-1.332 3.75-3.75 3.75Zm-12-16c-1.577 0-2.25.673-2.25 2.25v10c0 1.577.673 2.25 2.25 2.25h12c1.577 0 2.25-.673 2.25-2.25v-7c0-1.577-.673-2.25-2.25-2.25h-5a.747.747 0 0 1-.53-.22L9.69 4.75H6Zm6 8.65A2.403 2.403 0 0 1 9.6 11c0-1.323 1.077-2.4 2.4-2.4s2.4 1.077 2.4 2.4-1.077 2.4-2.4 2.4Zm0-3.3c-.496 0-.9.404-.9.9s.404.9.9.9.9-.404.9-.9-.404-.9-.9-.9Zm3.75 7.25v-.303c0-1.464-1.067-2.947-3.108-2.947H11.36c-2.041 0-3.108 1.482-3.108 2.947v.303a.75.75 0 0 0 1.5 0v-.303c0-.72.497-1.447 1.608-1.447h1.283c1.111 0 1.608.727 1.608 1.447v.303a.75.75 0 0 0 1.5 0Z"/></svg>
